X:756
M:C
L:1/8
K:B Minor
c>Bc>^A ~B2B,:|
|:c|d2 d<f d/d/d f>d|c>B A<e c>Ae>c|1 d2 d<f d/d/d f>d|c>Bd>^A ~B2B:|2
d<fd<f c<A e>c|d>Bc>^A ~B2B,||

